bundles/org.openhab.ui.habpanel/web/assets/icons/smarthome-set/garage.svg

<?xml version="1.0" encoding="UTF-8" standalone="no"?>
<svg width="32px" height="32px" viewBox="0 0 32 32" version="1.1" xmlns="http://www.w3.org/2000/svg" xmlns:xlink="http://www.w3.org/1999/xlink" xmlns:sketch="http://www.bohemiancoding.com/sketch/ns">
    <!-- Generator: Sketch 3.3.2 (12043) - http://www.bohemiancoding.com/sketch -->
    <title>garage</title>
    <desc>Created with Sketch.</desc>
    <defs></defs>
    <g id="flatten" stroke="none" stroke-width="1" fill="none" fill-rule="evenodd" sketch:type="MSPage">
        <g id="z-copy" sketch:type="MSArtboardGroup" transform="translate(-36.000000, -68.000000)" fill="#000000">
            <g id="garage" sketch:type="MSLayerGroup" transform="translate(36.000000, 68.000000)">
                <path d="M3.98386719,10.6409075 C3.98396427,13.3885807 3.98399805,24.5475172 3.9783758,27.9797846 C3.97733016,28.6181286 4.42280398,28.988951 5.01947754,28.9885842 C5.63730296,28.9882043 6.41432807,28.9877079 7.01783414,28.9872609 C7.57470524,28.9868484 7.98383801,28.2906415 7.98383801,27.9892091 L7.98383801,22.9892091 L7.98383801,22.4892091 L7.98383801,14.9888241 C7.98383801,13.8844672 8.87835176,12.9892091 9.97789828,12.9892091 L21.9897777,12.9892091 C23.0910668,12.9892091 23.983838,13.8766424 23.983838,14.9888241 L23.983838,22.4892091 L23.983838,22.4892091 L23.983838,22.9892091 C23.983838,22.9892091 23.9800572,26.2510212 23.9771621,27.9646709 C23.9761306,28.5751928 24.4292346,28.989278 25.0322961,28.9897276 C25.6392952,28.9901801 26.3966821,28.9910183 26.9922442,28.9925602 C27.5621262,28.9940356 27.983838,28.3035738 27.983838,27.9892091 L27.983838,10.5697046 L27.983838,10.5697046 L16.0502443,4.17050595 L3.98386719,10.6409075 L3.98386719,10.6409075 Z M1.97762773,29.009248 C1.97762773,30.0997795 2.86840532,31 3.9621737,31 L7.96803828,31 C9.06083077,31 9.95258424,30.0987803 9.95258424,28.9963251 L9.95258424,23.9973943 L21.915019,23.9973943 L21.915019,28.9963251 C21.915019,30.1092213 22.7987073,31 23.899565,31 L27.9054296,31 C28.9953273,31 29.8899755,30.1075005 29.8899755,29.009248 L29.8899755,11.6457617 L30.5318377,11.9911594 C31.0170367,12.2522538 31.6212859,12.0691991 31.881466,11.5822953 C32.1416462,11.0953915 31.9592325,10.4890192 31.4740335,10.2279248 L16.8146315,2.33943464 C16.6085418,2.10407588 16.3050555,1.98197349 16,2.00215797 C15.6949445,1.98197349 15.3914582,2.10407588 15.1853685,2.33943464 L0.525966502,10.2279248 C0.0407675435,10.4890192 -0.141646223,11.0953915 0.118533951,11.5822953 C0.378714125,12.0691991 0.982963301,12.2522538 1.46816226,11.9911594 L1.97762773,11.7170068 L1.97762773,29.009248 Z M8.98383801,19.9892091 L22.983838,19.9892091 L22.983838,21.9892091 L8.98383801,21.9892091 L8.98383801,19.9892091 L8.98383801,19.9892091 Z M8.98383801,16.9892091 L22.983838,16.9892091 L22.983838,18.9892091 L8.98383801,18.9892091 L8.98383801,16.9892091 L8.98383801,16.9892091 Z M21.9769925,13.9892091 C22.5330579,13.9892091 22.983838,14.4330739 22.983838,14.9892091 L22.983838,15.9892091 L8.98383801,15.9892091 L8.98383801,14.9892091 C8.98383801,14.4369244 9.43378676,13.9892091 9.99068348,13.9892091 L21.9769925,13.9892091 Z" sketch:type="MSShapeGroup"></path>
            </g>
        </g>
    </g>
</svg>

<svg width="32" height="32" xmlns="http://www.w3.org/2000/svg"><path d="M3.984 10.64c0 2.749 0 13.908-.006 17.34 0 .638.445 1.009 1.041 1.009l1.999-.002c.557 0 .966-.696.966-.998v-13c0-1.105.894-2 1.994-2H21.99c1.101 0 1.994.888 1.994 2v8l-.007 4.976c0 .61.452 1.024 1.055 1.025.607 0 1.365.001 1.96.003.57.001.992-.69.992-1.004V10.57L16.05 4.172 3.984 10.64ZM1.978 29.01c0 1.09.89 1.99 1.984 1.99h4.006a1.999 1.999 0 0 0 1.985-2.004v-4.999h11.962v5c0 1.112.884 2.003 1.985 2.003h4.005c1.09 0 1.985-.892 1.985-1.99V11.645l.642.345a.995.995 0 0 0 1.35-.409 1.002 1.002 0 0 0-.408-1.354l-14.66-7.889A.997.997 0 0 0 16 2.002a.997.997 0 0 0-.815.337L.526 10.228a1.002 1.002 0 0 0-.407 1.354c.26.487.864.67 1.35.41l.509-.275v17.292Zm7.006-9.02h14v2h-14v-2Zm0-3h14v2h-14v-2Zm12.993-3c.556 0 1.007.443 1.007 1v1h-14v-1c0-.553.45-1 1.007-1h11.986Z" fill="#000" fill-rule="evenodd"/></svg>
